X:13
T:Speed the Plough
M:C|
R:Reel
S:phelan-2/37
L:1/8
K:G
D | GGGB  dBBB      | gBfB eBdB | c2cA B2BG | Ad^cd ed=cA  |
    GGGB  dBBB      | gBfB eBdB | c2cA BGGG | AGFA  G3    :|
d | (3gag fa   gBBB | gBfB eBdB | c2cA B2Bg | Ad^cd ed=cA  |
    g2fa  gBBB      | gBfB eBdB | c2cA BGGG | AGFA  G3d   ||
    GGGa  gBBB      | gBfB eBdB | c2cA B2Bg | Ad^cd ed=cA  |
    GGGB  dBBB      | gBfB eBdB | c2cA BGGG | AGFA  G3     |]

